!!!COM:	Johannes Ockeghem
!!!CDT:	~1425-1497/02/06
!!!OPR:	Missa Ma maistresse
!!!ONM:	1
!!!OTL:	Kyrie
!!!AGN:	Mass; Kyrie
!!!SCT:	Ock1009a
!!!SCA:	Ock1009a
!!!voices:	4
!!!voices-OPR:	4
**kern	**kern	**kern	**kern
*staff4	*staff3	*staff2	*staff1
*Ivox	*Ivox	*Ivox	*Ivox
*I"Bassus	*I"Tenor	*I"Contratenor	*I"Discantus
*I'B	*I'T	*I'Ct	*I'D
*>[A,B,C]	*>[A,B,C]	*>[A,B,C]	*>[A,B,C]
*>A	*>A	*>A	*>A
*clefF4	*clefGv2	*clefGv2	*clefG2
*k[b-]	*k[b-]	*k[b-]	*k[b-]
*M3/1	*M3/1	*M3/1	*M3/1
*met(O)	*met(O)	*met(O)	*met(O)
!!section: Kyrie I
!!!OMD: Kyrie I
=1-	=1-	=1-	=1-
0.r	0.r	1.f	1cc
.	.	.	2a/
.	.	2d\	2.dd\
.	.	1d	.
.	.	.	8cc\L
.	.	.	8b-\J
.	.	.	2a/
=2	=2	=2	=2
0.r	0.r	2.g\	2g/
.	.	.	1b-
.	.	4f\	.
.	.	4e\	.
.	.	4d\	.
.	.	1f	2a/
.	.	.	1g
.	.	2e\	.
=3	=3	=3	=3
0.F	0c	1.f	0a
.	.	4e\	.
.	.	4d\	.
.	1A	1c	1f
=4	=4	=4	=4
1D	1.d	1f	1a
1.G	.	1.d	0g
.	2B-\	.	.
.	2B-\	.	.
2E\	[2G/	2c\	.
=5	=5	=5	=5
2E\	2G/]	2B-\	2r
2C/	1A	2.c\	1cc
1F	.	.	.
.	.	4F/	.
.	2c\	2f\	2a/
1G	2B-\	2e\	1b-
.	[2d\	2d\	.
=6	=6	=6	=6
1F	4d\]	1f	1a
.	4c\	.	.
.	1A	.	.
2C/	.	1r	1cc
1F	2F/	.	.
.	1G	1r	2.b-\
2E\	.	.	.
.	.	.	4g/
=7	=7	=7	=7
2.D\	1F	2.f\	0a
4C/	.	4e\	.
1AA	2E/	1c	.
.	1F	.	.
2.BB-/	.	1d	1r
.	2G/	.	.
4AA/	.	.	.
=8	=8	=8	=8
2FF/	2A/	2.c\	1r
1C	2G/	.	.
.	.	4B-\	.
.	2E/	2G/	1r
2AA/	2C/	1c	.
1GG	1D	.	1d
.	.	2Bni\	.
=9	=9	=9	=9
1r	1C	0c	1.e
1r	2E/	.	.
.	2F/	.	2c/
2FF/	2r	1A	2.c/
2AA/	2F/	.	.
.	.	.	4d/
=10	=10	=10	=10
2GG/	2G/	2r	1e
1C	2E/	2G/	.
.	1D	2A/	1f
2BB-/	.	2B-\	.
2C/	2C/	2r	2e/
[2GG/	2E/	[2B-\	2g/
=11	=11	=11	=11
4GG/]	2D/	4B-\]	2r
4AA/	.	4c\	.
4BB-/	1G	4d\	2g/
4C/	.	4e-i\	.
1AA	.	2.c\	2a/
.	2F#i/	.	2cc\
.	.	4A/	.
2GG/	2G/	2d\	2b-\
2C/	2A/	2c\	2cc\
=12	=12	=12	=12
2BB-/	2G/	2r	2dd\
2C/	2.c\	2e\	2cc\
1D	.	2f\	4r
.	4B-\	.	2f/
.	2B-\	2d\	.
.	.	.	4g/
1r	4A/	1e	2.a/
.	2c\	.	.
.	4B-\	.	4g/
=13	=13	=13	=13
2C/	2G/	2c\	2e/
2F\	2A/	2d\	2f/
2E\	2G/	2c\	2g/
2F\	1c	1f	2a/
1G	.	.	1b-
.	2B-\	2e\	.
=14	=14	=14	=14
0.Fl	0.cl	0.fl	0.al
!!LO:LB:i:g=z
=15||	=15||	=15||	=15||
*>B	*>B	*>B	*>B
*clefF4	*clefGv2	*clefGv2	*clefG2
*k[b-]	*k[b-]	*k[b-]	*k[b-]
*M3/1	*M3/1	*M3/1	*M3/1
*met(O)	*met(O)	*met(O)	*met(O)
!!section: Christe
!!!OMD: Christe
0.r	1c	2c\	0.r
.	.	2e\	.
.	2B-\	2d\	.
.	2G/	1g	.
.	2.A/	.	.
.	.	2f\	.
.	8G/L	.	.
.	8F/J	.	.
=16	=16	=16	=16
0.r	4E/	2.g\	0.r
.	4C/	.	.
.	2G/	.	.
.	.	4e\	.
.	2A/	2f\	.
.	1c	2e\	.
.	.	1g	.
.	2B-\	.	.
=17	=17	=17	=17
0.r	1A	2c\	0.r
.	.	1f	.
.	2d\	.	.
.	2c\	2e\	.
.	2B-\	1d	.
.	[2d\	.	.
=18	=18	=18	=18
0.r	2d\]	2f\	0.r
.	2c\	2e\	.
.	2B-\	2d\	.
.	1c	2e\	.
.	.	2c\	.
.	2B-\	[2g\	.
=19	=19	=19	=19
1r	2c\	2g\]	1r
.	2F/	1f	.
1r	1G	.	1r
.	.	2e\	.
2F\	1r	1f	1cc
2A\	.	.	.
=20	=20	=20	=20
2G\	1r	2g\	2b-\
1c	.	2e\	2g/
.	1r	1d	2a/
2B-\	.	.	4g/
.	.	.	4f/
2.c\	1A	2.c\	2e/
.	.	.	2f/
4B-\	.	4d\	.
=21	=21	=21	=21
2G\	2B-\	2e\	2g/
2A\	2c\	2f\	2cc\
2G\	2d\	1g	2b-\
2r	2.B-\	.	1dd
2G\	.	[1g	.
.	2G/	.	.
2E\	.	.	[2cc\
.	[4c\	.	.
=22	=22	=22	=22
2C/	4c\]	1g]	2cc\]
.	4e\	.	.
2G\	2d\	.	2bni\
2r	4c\	2e\	0cc
.	4B-\	.	.
2.C/	4A/	2.e\	.
.	4G/	.	.
.	4A/	.	.
4BB-/	2G/	4d\	.
2AA/	.	2c\	.
.	4F#i/	.	.
=23	=23	=23	=23
2GG/	1G	2B-\	1r
2.BB-/	.	2d\	.
.	2F/	2r	1dd
4AA/	.	.	.
2BB-/	2G/	2d\	.
2AA/	2r	4e\	2cc\
.	.	4f\	.
2GG/	2G/	2g\	2b-\
=24	=24	=24	=24
2.AA/	2E/	2r	2.cc\
.	2.F/	1c	.
4GG/	.	.	4b-\
2AA/	.	.	2a/
.	4E/	.	.
2BB-/	2D/	2d\	2.g/
2C/	2C/	2e\	.
.	.	.	4a/
2GG/	[2G/	2d\	2b-\
=25	=25	=25	=25
2.C/	2G/]	2e\	2cc\
.	2A/	2.c\	2f/
4AA/	.	.	.
2BB-/	2G/	.	2g/
.	.	4d\	.
2C/	1c	2e\	1a
1D	.	1d	.
.	2Bni\	.	2f/
=26	=26	=26	=26
0.Cl	0.cl	0.Gl	0.el
!!LO:LB:i:g=z
=27||	=27||	=27||	=27||
*>C	*>C	*>C	*>C
*clefF4	*clefGv2	*clefGv2	*clefG2
*k[b-]	*k[b-]	*k[b-]	*k[b-]
*M3/1	*M3/1	*M3/1	*M3/1
*met(O)	*met(O)	*met(O)	*met(O)
!!section: Kyrie II
!!!OMD: Kyrie II
0.C	1.c	1.c	1.e
.	4B-\	2d\	2f/
.	4A/	.	.
.	2G/	1e	1g
.	2c\	.	.
=28	=28	=28	=28
1r	2A/	2f\	2a/
.	2B-\	2d\	2g/
2r	2c\	1e	2a/
2C/	2A/	.	2cc\
2D\	2B-\	2d\	2.b-\
2E\	2G/	2B-\	.
.	.	.	4g/
=29	=29	=29	=29
1.F	2F/	2A/	1a
.	2r	1c	.
.	2A/	.	2r
2D\	1B-	2d\	2f/
2E-\	.	2r	2g/
2C/	2c\	2e\	2a/
=30	=30	=30	=30
1BB-	1d	1f	1b-
2r	2c\	2e\	2cc\
2BB-/	1B-	2d\	1dd
2D\	.	2f\	.
2E\	2G/	2e\	2b-\
=31	=31	=31	=31
2.F\	2.A/	1c	1.a
4G\	4B-\	.	.
1.A	1.c	1r	.
.	.	.	4g/
.	.	.	4f/
.	.	1A	2e/
2D\	2A/	.	2d/
=32	=32	=32	=32
1D	1A	1.d	1f
2r	2B-\	.	2g/
2D\	2A/	1f	1a
2F\	1d	.	.
2G\	.	2d\	2f/
=33	=33	=33	=33
1.A	1r	2.c\	1e
.	.	4d\	.
.	1A	2e\	1r
2F\	.	1d	.
2G\	1B-	.	1r
2E\	.	2g\	.
=34	=34	=34	=34
2D\	2B-\	2f\	0.r
1A	1c	1e	.
2F\	1A	1d	.
1E	.	.	.
.	2G/	2c#i\	.
=35	=35	=35	=35
1.D	2A/	1d	0.r
.	1B-	.	.
.	.	1r	.
4C/	1A	.	.
4BB-/	.	.	.
2AA/	.	1r	.
2GG/	2B-\	.	.
=36	=36	=36	=36
1.D	2A/	0.r	0.r
.	1B-	.	.
2C/	1A	.	.
2AA/	.	.	.
2BB-/	2G/	.	.
=37	=37	=37	=37
2D\	2F/	0.r	0.r
2C/	2.G/	.	.
2AA/	.	.	.
.	4F/	.	.
2BB-/	1F	.	.
1GG	.	.	.
.	2E/	.	.
=38	=38	=38	=38
1FF	2.F/	1.c	2.a/
.	8E/L	.	8g/L
.	8D/J	.	8f/J
1r	2C/	.	0e
.	2G/	2B-\	.
1r	2A/	1c	.
.	[2c\	.	.
=39	=39	=39	=39
1r	2c\]	1f	1d
.	2Bni\	.	.
1A	2c\	2e\	1c
.	2F/	2f\	.
2G\	2E/	2g\	2r
[2F\	2F/	[2c\	[2cc\
=40	=40	=40	=40
2F\]	1G	4c\]	4cc\]
.	.	4d\	8b-/L
.	.	.	8a/J
2E\	.	2e\	2g/
2.F\	1r	2A/	1a
.	.	2.c\	.
4G\	.	.	.
1A	1F	.	2r
.	.	4F/	.
.	.	2f\	[2cc\
=41	=41	=41	=41
2r	1c	2e\	2cc\]
2A\	.	2f\	2a/
2G\	1d	2.g\	2b-\
1B-	.	.	1dd
.	.	4f\	.
.	2G/	2d\	.
[2A\	2A/	[2f\	[2cc\
=42	=42	=42	=42
2A\]	2c\	2f\]	2cc\]
1G	2d\	4.g\	1b-
.	.	8f\	.
.	2B-\	2d\	.
2F\	2.c\	2r	2a/
2A\	.	2c\	2f/
.	4A/	.	.
2G\	[2B-\	2d\	[2g/
=43	=43	=43	=43
2E\	4B-\]	4e\	2g/]
.	4G/	4c\	.
2F\	2c\	1c	1a
1D	1F	.	.
.	.	2B-\	1f
1C	1G	1c	.
.	.	.	2e/
=44	=44	=44	=44
0.FFl	0.Fl	2c\	0.fl
.	.	1d	.
.	.	2c\	.
.	.	1cl	.
==	==	==	==
*-	*-	*-	*-
!!!RDF**kern: l=long note in original notation
!!!RDF**kern: i=editorial accidental
!!!RDF**kern: V=start of tuplet marker
!!!RDF**kern: Z=end of tuplet marker
!!!ENC:	Chris Gage 06-11-2012
!!!END:	2012/08/15/
!!!EED:	Jesse Rodin
!!!EEV:	2012/08/15/
!!!ONB:	Translated from MusicXML and edited on 2012/08/15/ by Craig Sapp
!!muse2ps: T^@{OPR}^u^@{ONM}{. }@{OTL}^C^@{COM}^i2I150v85,85,85,150Q8c120
